libs/ui/packages/crypto-icons/src/svg/COB.svg

<svg width="24" height="24" viewBox="0 0 24 24" fill="none">
<path d="M12 18.75H8.598L10.302 15.7822H13.698L15.402 18.75H12ZM10.3028 8.217H10.302L8.598 5.25H15.402L13.698 8.217H10.302H10.3028ZM17.802 15.3713H17.8005H17.802L16.0972 18.3397L14.3993 15.372H14.4L16.0972 12.4035H19.5L17.802 15.3713ZM6.198 8.622L7.902 5.65425L9.6 8.622L7.902 11.589H4.5L6.198 8.622ZM9.59925 15.372H9.6L7.902 18.3397L6.198 15.372L4.5 12.4028H7.902L9.6 15.3705L9.59925 15.372ZM17.802 8.622L19.5 11.5898H16.098L14.3993 8.622L16.0972 5.65425L17.802 8.622Z" fill="white"/>
<path d="M12 18.75H8.598L10.302 15.7822H13.698L15.402 18.75H12ZM10.3028 8.217H10.302L8.598 5.25H15.402L13.698 8.217H10.302H10.3028ZM17.802 15.3713H17.8005H17.802L16.0972 18.3397L14.3993 15.372H14.4L16.0972 12.4035H19.5L17.802 15.3713ZM6.198 8.622L7.902 5.65425L9.6 8.622L7.902 11.589H4.5L6.198 8.622ZM9.59925 15.372H9.6L7.902 18.3397L6.198 15.372L4.5 12.4028H7.902L9.6 15.3705L9.59925 15.372ZM17.802 8.622L19.5 11.5898H16.098L14.3993 8.622L16.0972 5.65425L17.802 8.622Z" fill="#13BF99"/>
</svg>

<svg width="24" height="24" viewBox="0 0 24 24" fill="none"><path fill="#fff" d="M12 18.75H8.598l1.704-2.968h3.396l1.704 2.968zM10.303 8.217 8.598 5.25h6.804l-1.704 2.967h-3.396m7.499 7.154-1.705 2.969-1.698-2.968h.001l1.697-2.969H19.5zM6.198 8.622l1.704-2.968L9.6 8.622l-1.698 2.967H4.5zm3.401 6.75L7.902 18.34l-1.704-2.968-1.698-2.97h3.402zm8.203-6.75L19.5 11.59h-3.402l-1.699-2.968 1.698-2.968z"/><path fill="#13bf99" d="M12 18.75H8.598l1.704-2.968h3.396l1.704 2.968zM10.303 8.217 8.598 5.25h6.804l-1.704 2.967h-3.396m7.499 7.154-1.705 2.969-1.698-2.968h.001l1.697-2.969H19.5zM6.198 8.622l1.704-2.968L9.6 8.622l-1.698 2.967H4.5zm3.401 6.75L7.902 18.34l-1.704-2.968-1.698-2.97h3.402zm8.203-6.75L19.5 11.59h-3.402l-1.699-2.968 1.698-2.968z"/></svg>
